X: 31005
T: Pachelbel's Frolics
R: reel
M: 4/4
K: Dmajor
|:(3ABc|"D"d3c defg|"A"~a3b afed|"Bm"~B3c dcdB|"F#m"ABAG "(D)"FDEF|
"G"GFGA ~B3c|"D"dcde ffef|"A7"gfed cdef|gece "D"d2:|
|:de|"D"fdad fdad|"A"ecac ecac|"Bm"dBfB dBfB|"F#m"ABAG "(D)"FDEF|
"G"GFGA ~B3c|"D"dcde ffef|"A7"gfed cdef|gece "D"d2:|

